X:1
T:Title
%%score 1 { 2 | 3 }
L:1/8
Q:1/4=115
M:4/4
K:F
V:1 treble nm="Church Organ, Staff"
V:2 treble nm="Church Organ, Winchester Old, CM"
V:3 bass 
V:1
 [CF]2 [FA]2- [FA][FA] [EG]2 | [DF]2 [DB]2 [FB]2 [FA]2 | [EG]2 [FA]2 [Gc]2 [Gc]2 | [G=B]2 [Ec]6 | %4
w: By~From~Este's~Psalter,~1592 * * * *||||
 [FA]2 [Fd]2- [Fd][Fc] [FB]2 | [FA]2 [EG]2 [DF]2 [^CE]2 | [CA]2 [EG]2 [DF]2 [DF]2 | [CE]2 [CF]6- | %8
w: ||||
 [CF]2 z2 z4 |] %9
w: |
V:2
 A,2 C2- CC C2 | A,2 B,2 D2 C2 | C2 C2 C2 D2 | D2 C6 | C2[K:bass] B,2- B,A, B,2 | C2 C2 A,2 A,2 | %6
 A,2 C2 A,2 B,2 | G,2 A,6- | A,2 z2 z4 |] %9
V:3
 F,2 F,2- F,F, C,2 | D,2 B,,2 B,,2 F,2 | C,2 F,2 E,2 G,2 | G,2 C,6 | F,2 z2 z F, D,2 | %5
 F,2 C,2 D,2 A,,2 | F,2 C,2 D,2 B,,2 | C,2 F,6- | F,2 z2 z4 |] %9

